Catalina-light/actions/22/dialog-close.svg

<svg xmlns="http://www.w3.org/2000/svg" viewBox="0 0 22 22">
  <defs id="defs3051">
    <style type="text/css" id="current-color-scheme">
      .ColorScheme-NegativeText {
        color:#da4453;
      }
      </style>
  </defs>
        <path
           style="fill:currentColor;fill-opacity:1;stroke:none" 
           class="ColorScheme-NegativeText"
           d="M 17.927299,6.98434 C 17.211951,5.75872 16.241534,4.7883 15.015918,4.07296 13.790047,3.35761 12.451791,3 11.000256,3 9.5488485,3 8.2102092,3.35761 6.9845935,4.07296 5.7588499,4.78818 4.7884323,5.75859 4.073085,6.98434 3.3576098,8.21008 3,9.54872 3,11 c 0,1.45141 0.3577376,2.78979 1.0729571,4.01566 0.7153474,1.22549 1.685765,2.19604 2.9115085,2.91138 C 8.2102092,18.64239 9.5487207,19 11.000128,19 c 1.451407,0 2.790046,-0.35761 4.015662,-1.07296 1.225616,-0.71522 2.196033,-1.68576 2.911381,-2.91138 C 18.64239,13.78992 19,12.45128 19,11 19,9.54859 18.64239,8.20995 17.927299,6.98434 l 0,0 z m -3.156351,5.90101 c 0.131946,0.13181 0.198047,0.28831 0.198047,0.46884 0,0.18743 -0.0661,0.34725 -0.198047,0.47907 l -0.937431,0.93756 c -0.131946,0.13195 -0.291637,0.19792 -0.4792,0.19792 -0.18053,0 -0.337025,-0.066 -0.468715,-0.19792 l -1.885474,-1.88547 -1.8854742,1.88547 c -0.1319462,0.13195 -0.2881847,0.19792 -0.4687156,0.19792 -0.1875629,0 -0.3472535,-0.066 -0.4791996,-0.19792 L 7.2291797,13.83326 C 7.0972335,13.70144 7.0312605,13.54162 7.0312605,13.35419 c 0,-0.18053 0.065973,-0.33703 0.1979192,-0.46884 L 9.1146538,11 7.2291797,9.11453 C 7.0972335,8.98271 7.0312605,8.82634 7.0312605,8.64581 c 0,-0.18756 0.065973,-0.34725 0.1979192,-0.4792 L 8.1667386,7.22918 C 8.2986847,7.09723 8.4583753,7.03126 8.6459382,7.03126 c 0.1805309,0 0.3367694,0.066 0.4687156,0.19792 l 1.8854742,1.88535 1.885474,-1.88535 c 0.13169,-0.13195 0.288185,-0.19792 0.468715,-0.19792 0.187563,0 0.347254,0.066 0.4792,0.19792 l 0.937431,0.93743 c 0.131946,0.13195 0.198047,0.29164 0.198047,0.4792 0,0.18053 -0.0661,0.3369 -0.198047,0.46872 L 12.885602,11 l 1.885346,1.88535 0,0 z"
            />
</svg>

<svg viewBox="0 0 22 22" xmlns="http://www.w3.org/2000/svg">
<defs>
<style id="current-color-scheme" type="text/css">.ColorScheme-NegativeText {
        color:#da4453;
      }</style>
</defs>
<path class="ColorScheme-NegativeText" d="m17.927 6.9843c-0.71535-1.2256-1.6858-2.196-2.9114-2.9114-1.2259-0.71535-2.5641-1.073-4.0157-1.073-1.4514 0-2.79 0.35761-4.0157 1.073-1.2257 0.71522-2.1962 1.6856-2.9115 2.9114-0.71548 1.2257-1.0731 2.5644-1.0731 4.0157 0 1.4514 0.35774 2.7898 1.073 4.0157 0.71535 1.2255 1.6858 2.196 2.9115 2.9114 1.2257 0.71535 2.5643 1.073 4.0157 1.073 1.4514 0 2.79-0.35761 4.0157-1.073 1.2256-0.71522 2.196-1.6858 2.9114-2.9114 0.71522-1.2257 1.0728-2.5644 1.0728-4.0157 0-1.4514-0.35761-2.79-1.0727-4.0157zm-3.1564 5.901c0.13195 0.13181 0.19805 0.28831 0.19805 0.46884 0 0.18743-0.0661 0.34725-0.19805 0.47907l-0.93743 0.93756c-0.13195 0.13195-0.29164 0.19792-0.4792 0.19792-0.18053 0-0.33702-0.066-0.46872-0.19792l-1.8855-1.8855-1.8855 1.8855c-0.13195 0.13195-0.28818 0.19792-0.46872 0.19792-0.18756 0-0.34725-0.066-0.4792-0.19792l-0.93756-0.93756c-0.13195-0.13182-0.19792-0.29164-0.19792-0.47907 0-0.18053 0.065973-0.33703 0.19792-0.46884l1.8855-1.8854-1.8855-1.8855c-0.13195-0.13182-0.19792-0.28819-0.19792-0.46872 0-0.18756 0.065973-0.34725 0.19792-0.4792l0.93756-0.93743c0.13195-0.13195 0.29164-0.19792 0.4792-0.19792 0.18053 0 0.33677 0.066 0.46872 0.19792l1.8855 1.8854 1.8855-1.8854c0.13169-0.13195 0.28818-0.19792 0.46872-0.19792 0.18756 0 0.34725 0.066 0.4792 0.19792l0.93743 0.93743c0.13195 0.13195 0.19805 0.29164 0.19805 0.4792 0 0.18053-0.0661 0.3369-0.19805 0.46872l-1.8853 1.8855 1.8853 1.8854z" fill="#363636"/>
</svg>
